svgs/beautyxt.svg

<svg width="192" height="192" viewBox="0 0 192 192" fill="none" xmlns="http://www.w3.org/2000/svg">
<path d="M116.5 104L113.5 115L125 112.5M116.5 104L154.5 66L163 74.5L125 112.5M116.5 104L125 112.5" stroke="black" stroke-width="8" stroke-linecap="round" stroke-linejoin="round"/>
<path d="M58.2809 22H122.371C133.607 22 142.652 33.7135 142.652 48.2634V143.737C142.652 158.287 133.607 170 122.371 170H58.2809C47.0453 170 38 158.287 38 143.737V48.2634C38 33.7135 47.0453 22 58.2809 22Z" stroke="black" stroke-width="12"/>
<path d="M58.9454 50.6724H121.707M58.9454 66.0141H121.707M58.9454 81.3557H121.707M58.9454 96.6973H121.707M58.2481 113.434L104.975 113.343" stroke="black" stroke-width="8" stroke-linecap="round" stroke-linejoin="round"/>
</svg>

<svg xmlns="http://www.w3.org/2000/svg" width="192" height="192" fill="none" viewBox="0 0 192 192"><path stroke="#000" stroke-linecap="round" stroke-linejoin="round" stroke-width="8" d="m116.5 104-3 11 11.5-2.5m-8.5-8.5 38-38 8.5 8.5-38 38m-8.5-8.5 8.5 8.5"/><path stroke="#000" stroke-width="12" d="M58.28 22h64.091c11.236 0 20.281 11.714 20.281 26.263v95.474c0 14.55-9.045 26.263-20.281 26.263h-64.09C47.045 170 38 158.287 38 143.737V48.263C38 33.713 47.045 22 58.28 22Z"/><path stroke="#000" stroke-linecap="round" stroke-linejoin="round" stroke-width="8" d="M58.945 50.672h62.762M58.945 66.014h62.762M58.945 81.356h62.762M58.945 96.697h62.762m-63.459 16.737 46.727-.091"/></svg>
